X:1
T:Title
%%score { ( 1 3 ) | ( 2 4 ) }
L:1/8
M:4/4
K:G
V:1 treble nm="Grand Piano"
V:3 treble 
V:2 treble 
V:4 treble 
V:1
 z4 z2[Q:1/4=100] G>A | B2 D>D G2 B>B | [GB]2 [FA]2 [FA]2 [FA]>[GB] | [Ac]2 [FA]>[FA] D2 [Fc]2 | %4
 [Ac]2 B4 B>c | d2 G>G A2 [GB]>[GB] |[M:9/8] [Gc]2 [Gd]- [Gd] [Ge]2- [Ge][Ge]>[Ge] | %7
[M:4/4] [Gd]2 [DGB]>[CDA] [B,DG]2 [DGB]2 |[M:7/8] [CFA]- [CFA]3 [G,B,DG]3 |[M:1/4] B>c | %10
[M:4/4] d6 z2 | d6 z2 | c6 z2 | B6 z2 | d6 z2 | d6 z2 | A6 z2 | %17
[M:9/8] d2- [A,Fd-] [Gd-] [CAd]2- [CAd] z z |[M:4/4] [Bd]6 z2 | [Ac]6 z2 | [Ac]6 z2 | %21
[M:3/4] [GB]6 |[M:1/4] B>c |[M:4/4] d2 d>d d2 [GB]>[GB] | %24
[M:9/8] [Gc]2 [Gd]- [Gd] [Ge]2- [Ge] [Ge]2 |[M:4/4] [Gd]2 [DGB]>[CDA] [B,DG]2 [DGB]2 | %26
[M:7/8] [CFA]- [CFA]3 [G,B,DG]3 |] %27
V:2
 z4 z2 [G,B,D]>[G,CD] | [G,DG]2 [G,B,]>[G,B,] [G,B,D]2 [G,DG]>[G,DG] | %2
 [D,D]2 [D,D]2 [D,D]2 [D,D]>[D,D] | [D,D]2 [D,D]>[D,D] [F,A,]2 [D,D]2 | %4
 [G,D]2 [G,DG]4 [G,D]>[G,A,D] | [G,B,D]2[K:bass] [G,B,D]>[G,B,D] [F,D]2 [=F,D]>[F,D] | %6
[M:9/8] [E,C]2 [D,B,]- [D,B,] [C,C]2- [C,C][C,C]>[C,C] |[M:4/4] [D,B,]2 D,>D, D,2 D,2 | %8
[M:7/8] D,- D,3 G,,3 |[M:1/4][K:treble] G>A |[M:4/4] B6 z2 | B6 z2 | A6[K:bass][K:treble] z2 | %13
 G6 z2 | B6 z2 | B6 z2 | F6 z2 |[M:9/8][K:bass] .D,3 B, D,2- D, z z | %18
[M:4/4] G,2 G,2 G,2[K:treble] A>G | D,2 D,>D, D,2 z2 | D,2 D,2 D,2[K:treble] B>A | %21
[M:3/4] G,2 G,>G, G,2 |[M:1/4] [G,DG]>[G,CG] | %23
[M:4/4] [G,B,G]2 [G,B,G]>[G,B,G] [G,B,G]2[K:bass] [=F,D]>[F,D] | %24
[M:9/8] [E,C]2 [D,B,]- [D,B,] [C,C]2- [C,C] [C,C]2 |[M:4/4] [D,B,]2 D,>D, D,2 D,2 | %26
[M:7/8] D,- D,3 G,,3 |] %27
V:3
 x8 | x8 | x8 | x8 | x8 | x8 |[M:9/8] x9 |[M:4/4] x8 |[M:7/8] x7 |[M:1/4] x2 | %10
[M:4/4] z2 D>D D2 B>c | z2 D>D D2 c>B | z2 D>D D2 B>A | z2 D2 D2 B>c | z2 D>D D2 B>c | %15
 z2 D>D D2 c>B | z2 D>D D2 e2 |[M:9/8] .[DF]3 z3 z3 |[M:4/4] D2 D2 D2 c>B | D2 D>D D2 z2 | %20
 D2 D2 D2 d>c |[M:3/4] D2 D>D D2 |[M:1/4] x2 |[M:4/4] x8 |[M:9/8] x9 |[M:4/4] x8 |[M:7/8] x7 |] %27
V:4
 x8 | x8 | x8 | x8 | x8 | x2[K:bass] x6 |[M:9/8] x9 |[M:4/4] x8 |[M:7/8] x7 |[M:1/4][K:treble] x2 | %10
[M:4/4] z2 G,>G, G,2 G>A | z2 G,>G, G,2 A>G | z2[K:bass] D,>D, D,2[K:treble] G>F | z2 G,2 G,2 G>A | %14
 z2 G,>G, G,2 G>A | z2 G,>G, G,2 A>G | z2 A,>A, A,2 [A,^CG]2 |[M:9/8][K:bass] z2 D,- D, z z z3 | %18
[M:4/4] x6[K:treble] x2 | x8 | x6[K:treble] x2 |[M:3/4] x6 |[M:1/4] x2 |[M:4/4] x6[K:bass] x2 | %24
[M:9/8] x9 |[M:4/4] x8 |[M:7/8] x7 |] %27

